X: 454
%%etbk:tnset id:181,pos:1,rep:2x,ant:
%%etbk:skill ?
%%etbk:pldat 2013-05-09T17:15
T: Inion Ni Scannlian (normal version)
H: Created 2013-02-19 /  Last Modified 2013-05-09
R: waltz
M: 3/4
L: 1/8
K: Gmaj
|: !1!G3 A{c} AG | !5!B!3!G !1!E>!2!E !1!E!2!F | !1!G2 GA AG |  !3!B!4!d d!1!G !2!B!4!d |
!5!!2!e3 !4!g f!1!d | !2!!5!e2 e!4!d !3!(3BAG | !2!A2 AG A!3!B |1 !3!B!4!d d!5!e !3!BA:|2 !3!B!4!d d!1!G !2!B!4!d |
!5!!2!e3 !4!a ab | !3!g2 !4!gf ge | !1!d3 e f!4!g | !1!B!2!A !1!G2 !2!B!4!d |
!5!!2!e3 !4!a ab | !3!g2 g!1!d !1!e/2f/2g/2a/2 | !5!b6 | !5!b!1!d !4!ad !3!gd |
!2!e3 !4!g fd | !2!!5!e2 e!4!d !3!(3BAG | !2!A2 AG AB | !3!B!4!d de !3!B!1!G |
!2!A2 !4!AB A!3!G | !1!DE ED !2!(3EF!4!G | !2!A2 AG AB | !3!B!4!d d!5!e !3!BA||
